X:5858
T:Gan Ainm
R:Polka
S:Seamus Begley, Kerry (accordian)
D:"River of Sound"
M:2/4
L:1/8
Z:Bernie Stocks
K:D
F/2 G/2 |: Addc/2B/2 AFFE/2F/2 | GBBA/2G/2 FDDF/2G/2 | Addc/2B/2 AFFE/2F/2 | 
GBBA D4 :: Adfa gee2 | Aceg fdd2 | Adfa geed | cAGE D4 :|
